assets/icons/qvision/blur_circular.svg

<svg xmlns="http://www.w3.org/2000/svg" height="24" viewBox="0 0 24 24" width="24"><path d="M0 0h24v24H0z" fill="none"/><path d="M10 9c-.55 0-1 .45-1 1s.45 1 1 1 1-.45 1-1-.45-1-1-1zm0 4c-.55 0-1 .45-1 1s.45 1 1 1 1-.45 1-1-.45-1-1-1zM7 9.5c-.28 0-.5.22-.5.5s.22.5.5.5.5-.22.5-.5-.22-.5-.5-.5zm3 7c-.28 0-.5.22-.5.5s.22.5.5.5.5-.22.5-.5-.22-.5-.5-.5zm-3-3c-.28 0-.5.22-.5.5s.22.5.5.5.5-.22.5-.5-.22-.5-.5-.5zm3-6c.28 0 .5-.22.5-.5s-.22-.5-.5-.5-.5.22-.5.5.22.5.5.5zM14 9c-.55 0-1 .45-1 1s.45 1 1 1 1-.45 1-1-.45-1-1-1zm0-1.5c.28 0 .5-.22.5-.5s-.22-.5-.5-.5-.5.22-.5.5.22.5.5.5zm3 6c-.28 0-.5.22-.5.5s.22.5.5.5.5-.22.5-.5-.22-.5-.5-.5zm0-4c-.28 0-.5.22-.5.5s.22.5.5.5.5-.22.5-.5-.22-.5-.5-.5zM12 2C6.48 2 2 6.48 2 12s4.48 10 10 10 10-4.48 10-10S17.52 2 12 2zm0 18c-4.42 0-8-3.58-8-8s3.58-8 8-8 8 3.58 8 8-3.58 8-8 8zm2-3.5c-.28 0-.5.22-.5.5s.22.5.5.5.5-.22.5-.5-.22-.5-.5-.5zm0-3.5c-.55 0-1 .45-1 1s.45 1 1 1 1-.45 1-1-.45-1-1-1z"/></svg>

<svg width="24" height="24" viewBox="0 0 24 24" fill="none" xmlns="http://www.w3.org/2000/svg">
<g clip-path="url(#clip0_147_3230)">
<path d="M10 9C9.45 9 9 9.45 9 10C9 10.55 9.45 11 10 11C10.55 11 11 10.55 11 10C11 9.45 10.55 9 10 9ZM10 13C9.45 13 9 13.45 9 14C9 14.55 9.45 15 10 15C10.55 15 11 14.55 11 14C11 13.45 10.55 13 10 13ZM7 9.5C6.72 9.5 6.5 9.72 6.5 10C6.5 10.28 6.72 10.5 7 10.5C7.28 10.5 7.5 10.28 7.5 10C7.5 9.72 7.28 9.5 7 9.5ZM10 16.5C9.72 16.5 9.5 16.72 9.5 17C9.5 17.28 9.72 17.5 10 17.5C10.28 17.5 10.5 17.28 10.5 17C10.5 16.72 10.28 16.5 10 16.5ZM7 13.5C6.72 13.5 6.5 13.72 6.5 14C6.5 14.28 6.72 14.5 7 14.5C7.28 14.5 7.5 14.28 7.5 14C7.5 13.72 7.28 13.5 7 13.5ZM10 7.5C10.28 7.5 10.5 7.28 10.5 7C10.5 6.72 10.28 6.5 10 6.5C9.72 6.5 9.5 6.72 9.5 7C9.5 7.28 9.72 7.5 10 7.5ZM14 9C13.45 9 13 9.45 13 10C13 10.55 13.45 11 14 11C14.55 11 15 10.55 15 10C15 9.45 14.55 9 14 9ZM14 7.5C14.28 7.5 14.5 7.28 14.5 7C14.5 6.72 14.28 6.5 14 6.5C13.72 6.5 13.5 6.72 13.5 7C13.5 7.28 13.72 7.5 14 7.5ZM17 13.5C16.72 13.5 16.5 13.72 16.5 14C16.5 14.28 16.72 14.5 17 14.5C17.28 14.5 17.5 14.28 17.5 14C17.5 13.72 17.28 13.5 17 13.5ZM17 9.5C16.72 9.5 16.5 9.72 16.5 10C16.5 10.28 16.72 10.5 17 10.5C17.28 10.5 17.5 10.28 17.5 10C17.5 9.72 17.28 9.5 17 9.5ZM12 2C6.48 2 2 6.48 2 12C2 17.52 6.48 22 12 22C17.52 22 22 17.52 22 12C22 6.48 17.52 2 12 2ZM12 20C7.58 20 4 16.42 4 12C4 7.58 7.58 4 12 4C16.42 4 20 7.58 20 12C20 16.42 16.42 20 12 20ZM14 16.5C13.72 16.5 13.5 16.72 13.5 17C13.5 17.28 13.72 17.5 14 17.5C14.28 17.5 14.5 17.28 14.5 17C14.5 16.72 14.28 16.5 14 16.5ZM14 13C13.45 13 13 13.45 13 14C13 14.55 13.45 15 14 15C14.55 15 15 14.55 15 14C15 13.45 14.55 13 14 13Z" fill="#323232"/>
</g>
<defs>
<clipPath id="clip0_147_3230">
<rect width="24" height="24" fill="white"/>
</clipPath>
</defs>
</svg>
